X:122
T:Mrs. MacKinnon Corry
R:March
C:Sir Alexander MacDonald
S:MacDonald - Skye Collection
N:pg.98
M:C
L:1/8
K:G
B|d>d(d>B) d>Bd>B|eeg>f e2 (e>f)|g>e dG AD G3:|
d|g2 (g>b) B>A B<G|(E<A) A>B A<af<a|(g/f/)(e/d/) B<g d>BA>G|
(FG/A/) (D>d) B<G G>d|
